X:1     %Music
B:Kidson F, 1891,Traditional Tunes, Oxford, Taphouse and Son
Z:Frank Kidson
S:Mr Holgate, Leeds
F:http://www.folkinfo.org/songs
T:Forty Miles
M:6/8     %Meter
L:1/8     %
K:C
G |c2 c cB A |G2 G G2 F |E2 E ED C | G2 G G3 |
w:It's for-ty miles_ I've gone to-day, I spied a cot-* tage on my way,
F3 E3 |F GA  A B |(c2ed3) | G3 G3 |A B c BA B |c3-c2  |]
w: Which I nev-er had seen_ be-fore_ Which I nev-er had seen_ be-fore*